X:1
T:O salutaris Hostia
T:Anonymous XVIII s. polish Hymn: Gaude Mater Polonia
T:O salutaris Hostia
C:Anonymous XVIII s.
C:polish Hymn:
C:Gaude Mater Polonia
%%score [ ( 1 2 ) ( 3 4 ) ]
L:1/8
Q:1/4=70
M:4/4
K:G
V:1 treble nm="P1" snm="Sta. 1"
V:2 treble 
V:3 bass nm="P2" snm="Sta. 2"
V:4 bass 
V:1
!f!"^Maestoso" G4 ((AGF))G | A4 G4 | ((ABcB A2)) G2 | G8 || B4 d2 c2 | ((B2 A2)) G4 | A4 F4 | %7
w: 1. sa- \- * lu-|ta- ris|Ho- \- \- * \- sti-|a,|1. coe- li|pan- * dis|o- sti-|
w: 2. ni _ _ tri-|no- que|Do- \- \- * \- mi-|no|2. sem- pi-|ter- * na|glo- ri-|
 !breath!!fermata!G8 | (B4 d2)!ff! d2 | e4 d2 d2 | c4 B4 |!>(! (A4 B2!>)!!p! !fermata!G2) | %12
w: um:|1. * la|pre- munt ho-|sti- li-|a, _ _|
w: a:|2. vi- tam|si- ne _|ter- mi-|no _ _|
!f! G4 ((AGF))G | A4 G4 | ((ABcB A2)) G2 | !fermata!G8 :| F2 G2 A2 _B2 | A4 !fermata!G4 |] %18
w: 1. ro- * \- bur,|fer au-|xi- * \- \- \- li-|um.|A- * \- \-|\- \-|
w: 2. bis _ _ do-|net in|pa- * \- \- \- tri-|a.|_ _ _ _||
V:2
 (D2 E2) (E2 D)D | F4 E4 | (FGFG F2) D2 | (E4 D4) || E4 D2 D2 | (D2 F2) E4 | E4 D4 | D8 | %8
 (G4 F2) G2 | G4 G2 G2 | (G2 A2) B4 | (F6 E2) | E4 (E2 D)D | F4 E4 | FGFG F2 E2 | %15
 (E4 !breath!D4) :| (D4 F2 G2 | G2 F2) G4 |] %18
V:3
!f! B,4 C3 B, | (D2 C2) B,4 | D6 B,2 | ((C4 B,4)) || G,4 F,2 A,2 | (G,2 C2) B,4 | C4 C4 | %7
 !breath!B,8 | (E4 DC)!ff! B,2 | C4 B,2 B,2 | ((E2 D2)) D4 | (D2 C2!p! !fermata!B,4) | %12
!f! ((C2 B,2)) C3 B, | (D2 C2) B,4 | D6 B,2 | ((C4 !breath!B,4)) :| (C2 _B,2 D4 | _E2 DC) =B,4 |] %18
V:4
 (G,2 E,2) (C,2 D,)G, | D,4 E,4 | (D,G,A,G, D,2) G,2 | (C,2 E,2 G,4) || E,4 B,,2 F,2 | %5
 (G,2 D,2) E,4 | C,4 D,4 | !fermata![G,,G,]8 | (E,4 B,A,) G,2 | (C,2 E,2) G,2 G,2 | (E,2 F,2) G,4 | %11
 (D,4 ^D,2 !fermata!E,2) | (C,2 E,2) (C,2 D,)G, | D,4 E,4 | (D,G,A,G, D,2) E,2 | %15
 (C,2 E,2 !fermata!G,4) :| (A,2 G,2 D,2 G,2 | C,2 D,2) !fermata![G,,G,]4 |] %18

